icons/16px/verified.svg

<svg width="16" height="16" viewBox="0 0 16 16" fill="none" xmlns="http://www.w3.org/2000/svg">
<path d="M7.41489 8.35348L9.96047 5.8079C10.1167 5.65169 10.3699 5.65169 10.5262 5.8079L11.0211 6.30287C11.1773 6.45908 11.1773 6.71235 11.0211 6.86856L7.69773 10.192C7.54152 10.3482 7.28825 10.3482 7.13205 10.192L5.22286 8.28277C5.06665 8.12656 5.06665 7.87329 5.22286 7.71708L5.71783 7.22211C5.87404 7.0659 6.12731 7.0659 6.28352 7.22211L7.41489 8.35348Z" fill="black"/>
<path fill-rule="evenodd" clip-rule="evenodd" d="M3.69688 12.0094C4.80687 13.5364 6.20871 14.5248 7.90239 14.9747C7.96629 14.9917 8.03371 14.9917 8.09761 14.9747C9.79129 14.5248 11.1931 13.5364 12.3031 12.0094C13.4344 10.4531 14 8.725 14 6.825V3.2883C14 3.11613 13.8898 2.96328 13.7265 2.90883L8.12649 1.04216C8.04438 1.01479 7.95562 1.01479 7.87351 1.04216L2.27351 2.90883C2.11017 2.96328 2 3.11613 2 3.2883V6.825C2 8.725 2.56563 10.4531 3.69688 12.0094ZM11.225 10.95C10.375 12.1875 9.3 13.0125 8 13.425C6.7 13.0125 5.625 12.1875 4.775 10.95C3.925 9.7125 3.5 8.3375 3.5 6.825L3.50391 4.08594L7.99851 2.56316L12.5 4.09095V6.825C12.5 8.3375 12.075 9.7125 11.225 10.95Z" fill="black"/>
</svg>

<?xml version="1.0" encoding="UTF-8"?>
<svg id="Layer_1" data-name="Layer 1" xmlns="http://www.w3.org/2000/svg" viewBox="0 0 16 16">
  <defs>
    <style>
      .cls-1 {
        stroke-width: 0px;
      }
    </style>
  </defs>
  <path class="cls-1" d="m7.4149,8.3535l2.5456-2.5456c.1562-.1562.4094-.1562.5657,0l.4949.495c.1562.1562.1562.4095,0,.5657l-3.3234,3.3234c-.1562.1562-.4095.1562-.5657,0l-1.9092-1.9092c-.1562-.1562-.1562-.4095,0-.5657l.495-.495c.1562-.1562.4095-.1562.5657,0l1.1314,1.1314Zm-3.718,3.6559c1.11,1.527,2.5118,2.5154,4.2055,2.9653.0639.017.1313.017.1952,0,1.6937-.4499,3.0955-1.4383,4.2055-2.9653,1.1313-1.5563,1.6969-3.2844,1.6969-5.1844v-3.5367c0-.1722-.1102-.325-.2735-.3795l-5.6-1.8667c-.0821-.0274-.1709-.0274-.253,0l-5.6,1.8667c-.1633.0545-.2735.2073-.2735.3795v3.5367c0,1.9.5656,3.6281,1.6969,5.1844Zm7.5281-1.0594c-.85,1.2375-1.925,2.0625-3.225,2.475-1.3-.4125-2.375-1.2375-3.225-2.475-.85-1.2375-1.275-2.6125-1.275-4.125l.0039-2.7391,4.4946-1.5228,4.5015,1.5278v2.734c0,1.5125-.425,2.8875-1.275,4.125Z"/>
</svg>
